packages/core/src/svgs/tokens/mono/DATA.svg

<svg width="24" height="24" viewBox="0 0 24 24" fill="none" xmlns="http://www.w3.org/2000/svg">
<path d="M8.47058 9.35304C8.47058 6.10419 11.1042 3.47067 14.353 3.47067V2.29419C10.4547 2.29419 7.29411 5.45478 7.29411 9.35304H8.47058ZM14.353 5.23537C13.2608 5.23537 12.2135 5.66919 11.4413 6.4414C10.6691 7.21361 10.2353 8.26094 10.2353 9.35304H9.05881C9.05881 7.94892 9.6166 6.60234 10.6094 5.60951C11.6023 4.61666 12.9489 4.0589 14.353 4.0589V5.23537ZM14.353 7.00007C13.7289 7.00007 13.1305 7.24798 12.6892 7.68924C12.2479 8.1305 12 8.72897 12 9.35304H10.8235C10.8235 8.41695 11.1953 7.51923 11.8573 6.85733C12.5191 6.19545 13.4169 5.8236 14.353 5.8236V7.00007ZM9.05881 15.2354C5.80999 15.2354 3.17647 12.6019 3.17647 9.35304H2C2 13.2512 5.16058 16.4118 9.05881 16.4118V15.2354ZM4.94116 9.35304C4.94116 10.445 5.37498 11.4924 6.14719 12.2646C6.9194 13.0368 7.96674 13.4707 9.05881 13.4707V14.6471C7.65472 14.6471 6.30815 14.0893 5.31531 13.0965C4.32247 12.1036 3.7647 10.7572 3.7647 9.35304H4.94116ZM6.70588 9.35304C6.70588 9.977 6.95377 10.5756 7.39503 11.0168C7.83629 11.4581 8.43478 11.706 9.05881 11.706V12.8824C8.12276 12.8824 7.22503 12.5106 6.56315 11.8487C5.90125 11.1868 5.5294 10.2891 5.5294 9.35304H6.70588ZM14.9411 8.76478C18.1899 8.76478 20.8235 11.3983 20.8235 14.6471H22C22 10.7489 18.8394 7.58831 14.9411 7.58831V8.76478ZM19.0588 14.6471C19.0588 13.5551 18.625 12.5077 17.8527 11.7355C17.0805 10.9633 16.0333 10.5294 14.9411 10.5294V9.35304C16.3452 9.35304 17.6918 9.91084 18.6846 10.9036C19.6775 11.8965 20.2353 13.243 20.2353 14.6471H19.0588ZM17.2941 14.6471C17.2941 14.0231 17.0462 13.4246 16.6049 12.9833C16.1637 12.542 15.5652 12.2941 14.9411 12.2941V11.1177C15.8772 11.1177 16.775 11.4895 17.4368 12.1514C18.0987 12.8134 18.4706 13.711 18.4706 14.6471H17.2941ZM11.4118 14.6471C11.4118 15.2712 11.1639 15.8696 10.7226 16.3109C10.2813 16.7522 9.68289 17.0001 9.05881 17.0001V18.1766C9.99487 18.1766 10.8927 17.8046 11.5545 17.1428C12.2163 16.481 12.5882 15.5832 12.5882 14.6471H11.4118ZM13.1764 14.6471C13.1764 15.7392 12.7426 16.7865 11.9704 17.5587C11.1982 18.331 10.1509 18.7647 9.05881 18.7647V19.9413C10.4629 19.9413 11.8095 19.3835 12.8023 18.3906C13.7952 17.3978 14.353 16.0512 14.353 14.6471H13.1764ZM9.05881 20.5294C12.3076 20.5294 14.9411 17.8959 14.9411 14.6471H16.1177C16.1177 18.5454 12.9571 21.706 9.05881 21.706V20.5294Z" fill="white"/>
</svg>

<svg xmlns="http://www.w3.org/2000/svg" width="24" height="24" fill="none" viewBox="0 0 24 24">
    <path fill="#fff" d="M8.47 9.353a5.88 5.88 0 0 1 5.883-5.882V2.294a7.06 7.06 0 0 0-7.059 7.059zm5.883-4.118a4.12 4.12 0 0 0-4.118 4.118H9.06a5.294 5.294 0 0 1 5.294-5.294zm0 1.765A2.353 2.353 0 0 0 12 9.353h-1.177a3.53 3.53 0 0 1 3.53-3.53zm-5.294 8.235a5.88 5.88 0 0 1-5.883-5.882H2a7.06 7.06 0 0 0 7.059 7.059zM4.94 9.353a4.12 4.12 0 0 0 4.118 4.118v1.176a5.294 5.294 0 0 1-5.294-5.294zm1.765 0a2.353 2.353 0 0 0 2.353 2.353v1.176a3.53 3.53 0 0 1-3.53-3.529zm8.235-.588a5.88 5.88 0 0 1 5.882 5.882H22a7.06 7.06 0 0 0-7.059-7.059zm4.118 5.882a4.117 4.117 0 0 0-4.118-4.118V9.353a5.294 5.294 0 0 1 5.294 5.294zm-1.765 0a2.353 2.353 0 0 0-2.353-2.353v-1.176a3.53 3.53 0 0 1 3.53 3.53zm-5.882 0A2.353 2.353 0 0 1 9.059 17v1.177a3.53 3.53 0 0 0 3.53-3.53zm1.764 0a4.12 4.12 0 0 1-4.117 4.118v1.176a5.294 5.294 0 0 0 5.294-5.294zM9.06 20.53a5.88 5.88 0 0 0 5.882-5.882h1.177a7.06 7.06 0 0 1-7.06 7.059z"/>
</svg>
